X:1
T:Title
T:Title
T:Composer
C:Composer
L:1/8
M:3/4
K:C
V:1 treble nm="Piano" snm="Pno."
V:1
 ^C2 ^C^C ^C^C | ^F6 | E6 | D6 | ^C6 | ^F6- | ^F6 | ^F6- | ^F6 | D6 | ^C6 | B,6 | A,6 | %13
 ^C2 ^C^C C^C | ^F2 ^F^F ^F^F | A2 ^GA ^F z | ^F^F ^F^F ^F^F | ^C_E F^F ^GA | B^c B2 A2 | %19
 ^C_E F^F ^GA | ^F2 z4 | z6 | z2 z2 ^F2 | ^F2 E2 D2 | E2 D2 ^C2 | D2 ^C2 B,2 | ^C2 B,2 A,2 | %27
 ^F2 z4 | z6 | z2 z2 ^F2 | ^F2 E2 D2 | E2 D2 ^C2 | D2 ^C2 B,2 | ^C2 B,2 A,2 | E6 | D6 | ^C6 | B,6 | %38
 z6 | ^f6 | e6 | d6 | ^f6 |] %43

